icon-themes/colibre_svg/cmd/lc_starshapes.star12.svg

<?xml-stylesheet type="text/css" href="icons.css" ?>
<svg viewBox="0 0 24 24" xmlns="http://www.w3.org/2000/svg">
  <path
	 class="icn icn--shape-color"
     d="M 12,2 10.775391,6.9 7.25,3.2632813 8.6230469,8.1246094 3.7617188,6.7515625 l 3.6367187,3.5253915 -4.9,1.224609 4.7011719,1.175781 2.5410156,-2.300781 c 0.1839199,-0.167034 0.423426,-0.259634 0.671874,-0.259766 h 1.69336 c 0.552251,8.2e-5 0.999918,0.447749 1,1 v 0.384766 h 1.222656 0.751953 0.480469 0.205078 c 0.116523,-0.129279 0.226408,-0.265591 0.357422,-0.378906 0.333926,-0.289615 0.71912,-0.506971 1.125,-0.683594 L 16.599999,10.276954 20.236718,6.7515625 15.37539,8.1246094 16.748437,3.2632813 13.223046,6.9 Z M 6.0078125,14.074219 3.7617188,16.25 6.6386719,15.4375 6.1796875,14.78125 c -0.1440732,-0.205721 -0.2054739,-0.458118 -0.172,-0.707031 z m 3.0393,2 c -0.1675058,0.114365 -0.3338383,0.236797 -0.5644531,0.279297 -0.090389,0.01664 -0.1867417,0.02339 -0.2832031,0.02539 l -0.9492188,3.3594 1.797,-1.853515 z"
     fill="#fafafa"
	 stroke="#3a3a38"
	 stroke-linecap="round"
	 stroke-linejoin="round"
     />
  <path
	 class="icn icn--highlight-color"
     d="m 19.2,11 c -1.424577,0.01525 -2.78504,0.979349 -3.25,1.95 -0.25,0.45 -0.376157,0.938986 -0.461719,1.516797 l 1.09375,0.197265 c 0.273798,0.04766 0.488568,0.02871 0.642578,-0.05466 0.559211,-1.096404 0.960793,-1.71844 1.976563,-1.804712 0.479144,0 0.848939,0.139951 1.098828,0.419921 0.274888,0.27997 0.407031,0.694161 0.407031,1.242188 0,0.303797 -0.03718,0.595029 -0.111328,0.875 -0.288801,1.006104 -0.976401,1.773789 -1.609375,2.501953 l -3.302734,3.548828 c -0.136899,0.137007 -0.232023,0.284479 -0.289063,0.445313 -0.05134,0.154877 -0.07813,0.300493 -0.07813,0.4375 V 23 H 23 v -1.287109 c 0,-0.214446 -0.06818,-0.386529 -0.205078,-0.517579 -0.131195,-0.13105 -0.304728,-0.197265 -0.521484,-0.197265 -1.080545,-0.01226 -2.281595,-0.02962 -3.294922,0.07227 -0.256685,0.0417 -0.512847,0.104105 -0.769532,0.1875 l 2.41211,-2.636718 c 0.913579,-0.886342 1.563783,-1.892711 2.027344,-3.001953 0.119786,-0.37528 0.179687,-0.779997 0.179687,-1.214844 0,-0.506329 -0.08474,-0.967789 -0.255859,-1.384766 C 22.406847,12.596597 22.169349,12.235341 21.861328,11.9375 21.559011,11.639659 21.191324,11.410834 20.757812,11.25 20.330005,11.083209 19.854855,11 19.330078,11 Z M 10.414062,11.115234 7,14.207031 c 0.4841802,1.147186 1.1296103,1.344578 1.5917969,1.009766 l 1.4804691,-1.330078 c -0.01711,0.29784 -0.02539,0.583408 -0.02539,0.857422 v 6.648437 H 7.8476562 V 23 H 14.050781 V 21.392578 H 12.107422 V 11.115234 Z"
     fill="#83beec"
	 stroke="#1e8bcd"
	 stroke-linecap="round"
	 stroke-linejoin="round"
     />
</svg>

<?xml-stylesheet type="text/css" href="icons.css" ?>
<svg viewBox="0 0 24 24" xmlns="http://www.w3.org/2000/svg">
  <path
	 class="icn icn--shape-color" 
     d="m12 2-1.224609 4.9-3.525391-3.6367187 1.3730469 4.8613281-4.8613281-1.3730469 3.6367187 3.525391-4.9 1.224609 4.7011719 1.175781 2.5410156-2.300781a1.00015 1.00015 0 0 1 .6718745-.259766h1.69336a1.00015 1.00015 0 0 1 1 1v.384766h1.222656.751953.480469.205078c.116523-.129279.226408-.265591.357422-.378906.333926-.289615.71912-.506971 1.125-.683594l-.648438-.162109 3.636719-3.525391-4.861328 1.3730469 1.373047-4.8613281-3.525391 3.6367187zm-1.201172 10.115234-.861328.8a1.00015 1.00015 0 0 1 .875.322266v-.53l.294922-.294922v-.277344zm-4.7910155 1.958985-2.2460937 2.175781 2.8769531-.8125-.4589844-.65625a1.00015 1.00015 0 0 1 -.172-.707031zm2.4453.47.015625.021484-.0058594-.011719c-.00634-.00886-.0042856-.002865-.0097656-.009765zm.594 1.53c-.1675058.114365-.3338383.236797-.5644531.279297-.0903893.016643-.1867417.023385-.2832031.02539l-.9492188 3.3594 1.797-1.853515z"
     fill="#fafafa" 
	 stroke="#3a3a38" 
	 stroke-linecap="round" 
	 stroke-linejoin="miter"
     />
  <path
	 id="HighlightColor" 
     d="M 19.2 11 C 18.8 11 18.4 11.1 17.9 11.2 C 17.5 11.4 17.6 11.6 16.8 11.875 C 16.4 12.2 16.2 12.5 15.95 12.95 C 15.7 13.4 15.573843 13.888986 15.488281 14.466797 L 16.582031 14.664062 C 16.855829 14.711718 17.070599 14.69277 17.224609 14.6094 C 17.384324 14.52598 17.510296 14.348232 17.601562 14.074219 C 17.652899 13.895514 17.727249 13.729096 17.824219 13.574219 C 17.921189 13.419342 18.03693 13.285055 18.173828 13.172 C 18.310727 13.058698 18.465596 12.96787 18.636719 12.902344 C 18.807842 12.836817 18.995824 12.804688 19.201172 12.804688 C 19.680316 12.804688 20.050111 12.944639 20.3 13.224609 C 20.574888 13.504579 20.707031 13.91877 20.707031 14.466797 C 20.707031 14.770594 20.669856 15.061826 20.595703 15.341797 C 20.52155 15.61581 20.410025 15.890049 20.261719 16.164062 C 20.119116 16.432119 19.939412 16.704502 19.722656 16.978516 C 19.511605 17.252529 19.265829 17.539953 18.986328 17.84375 L 15.683594 21.392578 C 15.546695 21.529585 15.451571 21.677057 15.394531 21.837891 C 15.343191 21.992768 15.316406 22.138384 15.316406 22.275391 L 15.316406 23 L 23 23 L 23 21.712891 C 23 21.498445 22.93182 21.326362 22.794922 21.195312 C 22.663727 21.064262 22.490194 20.998047 22.273438 20.998047 L 19.697266 20.998047 C 19.474806 20.998047 19.2352 21.022659 18.978516 21.070312 C 18.721831 21.11201 18.465669 21.174417 18.208984 21.257812 L 20.621094 18.621094 C 20.917707 18.299426 21.200657 17.981727 21.47 17.666016 C 21.736843 17.344348 21.970278 17.017175 22.169922 16.683594 C 22.369565 16.344055 22.528651 15.988463 22.648438 15.619141 C 22.768224 15.243861 22.828125 14.839144 22.828125 14.404297 C 22.828125 13.897968 22.743389 13.436508 22.572266 13.019531 C 22.406847 12.596597 22.169349 12.235341 21.861328 11.9375 C 21.559011 11.639659 21.191324 11.410834 20.757812 11.25 C 20.330005 11.083209 19.854855 11 19.330078 11 z M 10.414062 11.115234 L 7 14.207031 L 7.6503906 15.136719 C 7.6846157 15.184374 7.7321772 15.231644 7.7949219 15.279297 C 7.8633711 15.320997 7.9417822 15.351274 8.0273438 15.369141 C 8.1129052 15.387014 8.2038116 15.387014 8.3007812 15.369141 C 8.397751 15.351271 8.4948271 15.300192 8.5917969 15.216797 L 10.072266 13.886719 C 10.055152 14.184559 10.046875 14.470127 10.046875 14.744141 L 10.046875 21.392578 L 7.8476562 21.392578 L 7.8476562 23 L 14.050781 23 L 14.050781 21.392578 L 12.107422 21.392578 L 12.107422 11.115234 L 10.414062 11.115234 z "
     fill="#1e8bcd" 
     />
</svg>
